public/images/bussnis-secrets.svg

<svg width="140" height="9" fill="none" xmlns="http://www.w3.org/2000/svg"><path d="M2.44 3.38V2.25H8.4V.3H0v8.43h5.69c.79 0 1.38-.07 1.82-.25.93-.37 1.55-1.27 1.55-2.46 0-1.21-.59-2.04-1.52-2.41-.43-.18-1.01-.23-1.63-.23H2.44zm0 3.22V5.26h3.33c.27 0 .49.01.66.1.2.11.31.3.31.55 0 .25-.12.52-.41.62-.13.06-.32.07-.56.07H2.44zM12.9 5.2V.3h-2.44v8.43h2.16l4.21-4.91v4.91h2.44V.3h-2.15L12.9 5.2zM27.51.3c-.52-.16-1.3-.3-2.38-.3-.96 0-1.83.08-2.68.38-1.06.38-1.75 1.19-1.88 2.29h2.63c.16-.39.38-.58.7-.71.29-.12.63-.18 1.08-.18.51 0 .91.06 1.23.2.44.18.59.5.59.78 0 .34-.15.58-.5.71-.31.09-.59.09-1.08.09h-1.99v1.91h2.14c.71 0 .94.02 1.16.11.27.08.47.31.47.67 0 .34-.15.64-.52.78l-.05.02c-.22.08-.5.19-1.35.19-.62 0-1.04-.11-1.29-.23-.26-.12-.51-.37-.59-.73h-2.7c.13 1.23.83 1.97 1.8 2.34.66.25 1.64.36 2.77.36 1.39 0 2.1-.14 2.68-.32 1.14-.36 1.82-1.22 1.82-2.32 0-.96-.59-1.72-1.62-1.99.84-.37 1.4-1.01 1.4-1.98 0-.94-.64-1.72-1.84-2.07zm9.9 5.29v3.14h2.45V.3h-2.45v3.08h-3.92V.3h-2.44v8.43h2.44V5.59h3.92zM41.71.3h8.15v1.93h-5.71v1.4h5.38v1.68h-5.38V6.8h5.71v1.93h-8.15V.3zm19.16 3.34C60.52 1.55 58.75.07 55.95.07c-3.2-.04-5.17 1.91-5.17 4.46 0 2.52 1.97 4.47 5.17 4.47 2.83-.02 4.53-1.49 4.9-3.6h-2.57c-.26.96-1.15 1.61-2.4 1.61-1.56 0-2.52-1.1-2.52-2.48s.96-2.46 2.52-2.46c1.25 0 2.13.64 2.38 1.57h2.61zm1.47.04h4.08v1.84h-4.08V3.68zm15.71-.04C77.7 1.55 75.93.07 73.13.07c-3.2-.04-5.17 1.91-5.17 4.46 0 2.52 1.97 4.47 5.17 4.47 2.83-.02 4.53-1.49 4.9-3.6h-2.58c-.25.96-1.14 1.61-2.39 1.61-1.56 0-2.53-1.1-2.53-2.48s.97-2.46 2.53-2.46c1.25 0 2.12.64 2.38 1.57h2.61zM87.46.3h-8.15v8.43h8.15V6.8h-5.71V5.31h5.37V3.63h-5.37v-1.4h5.71V.3zm7.64 8.43-2.92-3.19h-.67v3.19h-2.45V.3h2.45v3.17h.67L95.13.3h3.07l-3.91 4.04 4.06 4.39H95.1zM99.32.3v8.43h2.44V6.46h2.58c.6 0 1.19-.02 1.77-.21 1.11-.37 1.93-1.42 1.93-2.84 0-1.41-.8-2.44-1.9-2.85-.61-.23-1.18-.26-1.8-.26h-5.02zm2.44 2.03h2.22c.47 0 .74.06.96.15.39.15.58.53.58.92 0 .42-.22.83-.64.97-.2.07-.44.11-.9.11h-2.22V2.33zM109.22.3h8.16v1.93h-5.71v1.4h5.37v1.68h-5.37V6.8h5.71v1.93h-8.16V.3zm14.92 8.43V2.55h3.47V.3h-9.47v2.25h3.47v6.18h2.53zm10.6-.2c-.47.15-.98.2-1.54.2h-4.75V.3h2.44v2.26h2.31c.61 0 1.25.02 1.79.23 1.13.45 1.84 1.42 1.84 2.82 0 1.47-.83 2.55-2.09 2.92zM137.55.3H140v8.43h-2.45V.3zm-3.82 4.35c-.29-.1-.61-.1-.95-.1h-1.89v2.14h1.89c.42 0 .69 0 .96-.12.39-.18.63-.55.63-.99 0-.43-.24-.78-.64-.93z" fill="#000"/></svg>

<svg width="140.000000" height="9.000000" viewBox="0 0 140 9" fill="none" xmlns="http://www.w3.org/2000/svg" xmlns:xlink="http://www.w3.org/1999/xlink">
	<desc>
			Created with Pixso.
	</desc>
	<defs/>
	<path id="Vector" d="M2.44 3.38L2.44 2.25L8.4 2.25L8.4 0.3L0 0.3L0 8.73L5.69 8.73C6.48 8.73 7.07 8.66 7.51 8.48C8.44 8.11 9.06 7.21 9.06 6.02C9.06 4.81 8.47 3.98 7.54 3.61C7.11 3.43 6.53 3.38 5.91 3.38L2.44 3.38ZM2.44 6.6L2.44 5.26L5.77 5.26C6.04 5.26 6.26 5.27 6.43 5.36C6.63 5.47 6.74 5.66 6.74 5.91C6.74 6.16 6.62 6.43 6.33 6.53C6.2 6.59 6.01 6.6 5.77 6.6L2.44 6.6ZM12.9 5.2L12.9 0.3L10.46 0.3L10.46 8.73L12.62 8.73L16.83 3.82L16.83 8.73L19.27 8.73L19.27 0.3L17.12 0.3L12.9 5.2ZM27.51 0.3C26.99 0.14 26.21 0 25.13 0C24.17 0 23.3 0.08 22.45 0.38C21.39 0.76 20.7 1.57 20.57 2.67L23.2 2.67C23.36 2.28 23.58 2.09 23.9 1.96C24.19 1.84 24.53 1.78 24.98 1.78C25.49 1.78 25.89 1.84 26.21 1.98C26.65 2.16 26.8 2.48 26.8 2.76C26.8 3.1 26.65 3.34 26.3 3.47C25.99 3.56 25.71 3.56 25.22 3.56L23.23 3.56L23.23 5.47L25.37 5.47C26.08 5.47 26.31 5.49 26.53 5.58C26.8 5.66 27 5.89 27 6.25C27 6.59 26.85 6.89 26.48 7.03L26.43 7.05C26.21 7.13 25.93 7.24 25.08 7.24C24.46 7.24 24.04 7.13 23.79 7.01C23.53 6.89 23.28 6.64 23.2 6.28L20.5 6.28C20.63 7.51 21.33 8.25 22.3 8.62C22.96 8.87 23.94 8.98 25.07 8.98C26.46 8.98 27.17 8.84 27.75 8.66C28.89 8.3 29.57 7.44 29.57 6.34C29.57 5.38 28.98 4.62 27.95 4.35C28.79 3.98 29.35 3.34 29.35 2.37C29.35 1.43 28.71 0.65 27.51 0.3ZM37.41 5.59L37.41 8.73L39.86 8.73L39.86 0.3L37.41 0.3L37.41 3.38L33.49 3.38L33.49 0.3L31.05 0.3L31.05 8.73L33.49 8.73L33.49 5.59L37.41 5.59ZM41.71 0.3L49.86 0.3L49.86 2.23L44.15 2.23L44.15 3.63L49.53 3.63L49.53 5.31L44.15 5.31L44.15 6.8L49.86 6.8L49.86 8.73L41.71 8.73L41.71 0.3ZM60.87 3.64C60.52 1.55 58.75 0.07 55.95 0.07C52.75 0.03 50.78 1.98 50.78 4.53C50.78 7.05 52.75 9 55.95 9C58.78 8.98 60.48 7.51 60.85 5.4L58.28 5.4C58.02 6.36 57.13 7.01 55.88 7.01C54.32 7.01 53.36 5.91 53.36 4.53C53.36 3.15 54.32 2.07 55.88 2.07C57.13 2.07 58.01 2.71 58.26 3.64L60.87 3.64ZM62.34 3.68L66.42 3.68L66.42 5.52L62.34 5.52L62.34 3.68ZM78.05 3.64C77.7 1.55 75.93 0.07 73.13 0.07C69.93 0.03 67.96 1.98 67.96 4.53C67.96 7.05 69.93 9 73.13 9C75.96 8.98 77.66 7.51 78.03 5.4L75.45 5.4C75.2 6.36 74.31 7.01 73.06 7.01C71.5 7.01 70.53 5.91 70.53 4.53C70.53 3.15 71.5 2.07 73.06 2.07C74.31 2.07 75.18 2.71 75.44 3.64L78.05 3.64ZM87.46 0.3L79.31 0.3L79.31 8.73L87.46 8.73L87.46 6.8L81.75 6.8L81.75 5.31L87.12 5.31L87.12 3.63L81.75 3.63L81.75 2.23L87.46 2.23L87.46 0.3ZM95.1 8.73L92.18 5.54L91.51 5.54L91.51 8.73L89.06 8.73L89.06 0.3L91.51 0.3L91.51 3.47L92.18 3.47L95.13 0.3L98.2 0.3L94.29 4.34L98.35 8.73L95.1 8.73ZM99.32 0.3L99.32 8.73L101.76 8.73L101.76 6.46L104.34 6.46C104.94 6.46 105.53 6.44 106.11 6.25C107.22 5.88 108.04 4.83 108.04 3.41C108.04 2 107.24 0.97 106.14 0.56C105.53 0.33 104.96 0.3 104.34 0.3L99.32 0.3ZM101.76 2.33L103.98 2.33C104.45 2.33 104.72 2.39 104.94 2.48C105.33 2.63 105.52 3.01 105.52 3.4C105.52 3.82 105.3 4.23 104.88 4.37C104.68 4.44 104.44 4.48 103.98 4.48L101.76 4.48L101.76 2.33ZM109.22 0.3L117.38 0.3L117.38 2.23L111.67 2.23L111.67 3.63L117.04 3.63L117.04 5.31L111.67 5.31L111.67 6.8L117.38 6.8L117.38 8.73L109.22 8.73L109.22 0.3ZM124.14 8.73L124.14 2.55L127.61 2.55L127.61 0.3L118.14 0.3L118.14 2.55L121.61 2.55L121.61 8.73L124.14 8.73ZM134.74 8.53C134.27 8.68 133.76 8.73 133.2 8.73L128.45 8.73L128.45 0.3L130.89 0.3L130.89 2.56L133.2 2.56C133.81 2.56 134.45 2.58 134.99 2.79C136.12 3.24 136.83 4.21 136.83 5.61C136.83 7.08 136 8.16 134.74 8.53L134.74 8.53ZM137.55 0.3L140 0.3L140 8.73L137.55 8.73L137.55 0.3ZM133.73 4.65C133.44 4.55 133.12 4.55 132.78 4.55L130.89 4.55L130.89 6.69L132.78 6.69C133.2 6.69 133.47 6.69 133.74 6.57C134.13 6.39 134.37 6.02 134.37 5.58C134.37 5.15 134.13 4.8 133.73 4.65Z" fill="#000000" fill-opacity="1.000000" fill-rule="nonzero"/>
</svg>
